X:12203
T:Haste To The Wedding
R:Jig
B:Tuneworks Tunebook (https://www.tuneworks.co.uk/)
G:Tuneworks
Z:Jon Warbrick <jon.warbrick@googlemail.com>
M:6/8
L:1/8
K:D
|: "D"ABA Agf | "G"ede fdB | "D"ABA AGF | "A"GFG EFG | 
"D"ABA Agf | "G"ede fdB | "A"A2 g faf | [1 "D"ded dcB :| [2 "D"ded dfg ||
|: "D"afa afa | "G"bgb bgb | "D"afa afa | "A"gfg efg | 
"Bm"a3 "F#m"f3 | "G"ede fdB | "A"A2 g  faf | [1 "D"ded dfg :| [2 "D"ded dcB |]

